X:17358
T:The Wind That Shakes the Barley
M:C|
R:reel
K:D
|"D"A2AB AFED|"Bm"B2BA BcdB|"D"A2 AB AFED|"G"gfed "A7"BcdB|
"D"A2AB AFEF|"Bm"DBBA BcdB|"D"A2AB ADFA|"G"gfed "A7"Bcde||
|"D"f2fd "G"g2ge|"D"f2fd "A7"Bcde|"D"f2df "G"gefg|"D"afed "A7"Bcde|
"D"f2fd "G"g2ge|"D"f2fd "A7"Bcd2|"D"defg afbf|"G"gfed "A7"BcdB||
:75
T:Cooley's Reel
R:reel
A:Ireland
M:C|
K:EDor
 D2|"Em"EBBA B2EB | B2AB dBAG |"D" (3FEDAD BDAG | (3FEDFA dAFD | 
"Em"EBBA B2EB | B2AB defg | "D"afec dBAF | DEFD "Em"E2 :|
gf | "Em"eB~B2 efgf | eB~B2 gedB | "D"A2FA DAFA | ~A2FA defg | 
"Em"eB~B2 efgf | eB~B2 defg | "D"afec dBAF | DEFD "Em"E2 :|


